svgs/thin/face-zipper.svg

<svg xmlns="http://www.w3.org/2000/svg" viewBox="0 0 512 512"><!--! Font Awesome Pro 6.5.1 by @fontawesome - https://fontawesome.com License - https://fontawesome.com/license (Commercial License) Copyright 2023 Fonticons, Inc. --><path d="M256 16C123.5 16 16 123.5 16 256s107.5 240 240 240c36.9 0 71.9-8.3 103.1-23.2c4-1.9 8.8-.2 10.7 3.8s.2 8.8-3.8 10.7C332.7 503.1 295.4 512 256 512C114.6 512 0 397.4 0 256S114.6 0 256 0S512 114.6 512 256c0 22.8-3 45-8.6 66.1c-1.1 4.3-5.5 6.8-9.8 5.7s-6.8-5.5-5.7-9.8c5.3-19.8 8.1-40.5 8.1-61.9C496 123.5 388.5 16 256 16zM160.4 208a16 16 0 1 1 32 0 16 16 0 1 1 -32 0zm176-16a16 16 0 1 1 0 32 16 16 0 1 1 0-32zM200 320c4.4 0 8 3.6 8 8v48c0 4.4-3.6 8-8 8s-8-3.6-8-8V328c0-4.4 3.6-8 8-8zm72 8v48c0 4.4-3.6 8-8 8s-8-3.6-8-8V328c0-4.4 3.6-8 8-8s8 3.6 8 8zm56-8c4.4 0 8 3.6 8 8v48c0 4.4-3.6 8-8 8s-8-3.6-8-8V328c0-4.4 3.6-8 8-8zm-184 8v48c0 4.4-3.6 8-8 8s-8-3.6-8-8V328c0-4.4 3.6-8 8-8s8 3.6 8 8zm240.8 2.3c7.2-7.2 18.1-9.1 27.2-4.7l61.8 29.2c40.9 19.3 50.3 73.3 18.3 105.3s-86 22.6-105.3-18.3L357.6 380c-4.3-9.2-2.4-20.1 4.7-27.2l22.5-22.5zm20.4 9.7c-3.1-1.4-6.7-.8-9.1 1.6l-22.5 22.5c-2.4 2.4-3 6-1.6 9.1l29.2 61.8c14.6 30.9 55.4 38 79.5 13.8s17.1-64.9-13.8-79.5L405.2 340zm56.5 73.6l-16 16c-3.1 3.1-8.2 3.1-11.3 0s-3.1-8.2 0-11.3l16-16c3.1-3.1 8.2-3.1 11.3 0s3.1 8.2 0 11.3z"/></svg>

<svg xmlns="http://www.w3.org/2000/svg" viewBox="0 0 512 512"><!--! Font Awesome Pro 6.1.1 by @fontawesome - https://fontawesome.com License - https://fontawesome.com/license (Commercial License) Copyright 2022 Fonticons, Inc. --><path d="M256 16C123.5 16 16 123.5 16 256C16 388.5 123.5 496 256 496C292.9 496 327.9 487.7 359.1 472.8C363.1 470.9 367.9 472.6 369.8 476.6C371.7 480.5 369.1 485.3 366 487.2C332.7 503.1 295.4 512 256 512C114.6 512 0 397.4 0 256C0 114.6 114.6 0 256 0C397.4 0 512 114.6 512 256C512 278.8 509 300.1 503.4 322.1C502.3 326.3 497.9 328.9 493.6 327.7C489.3 326.6 486.8 322.2 487.9 317.9C493.2 298.2 496 277.4 496 256C496 123.5 388.5 16 256 16V16zM192.4 208C192.4 216.8 185.2 224 176.4 224C167.5 224 160.4 216.8 160.4 208C160.4 199.2 167.5 192 176.4 192C185.2 192 192.4 199.2 192.4 208zM320.4 208C320.4 199.2 327.5 192 336.4 192C345.2 192 352.4 199.2 352.4 208C352.4 216.8 345.2 224 336.4 224C327.5 224 320.4 216.8 320.4 208zM200 320C204.4 320 208 323.6 208 328V376C208 380.4 204.4 384 200 384C195.6 384 192 380.4 192 376V328C192 323.6 195.6 320 200 320zM272 376C272 380.4 268.4 384 264 384C259.6 384 256 380.4 256 376V328C256 323.6 259.6 320 264 320C268.4 320 272 323.6 272 328V376zM328 320C332.4 320 336 323.6 336 328V376C336 380.4 332.4 384 328 384C323.6 384 320 380.4 320 376V328C320 323.6 323.6 320 328 320zM144 376C144 380.4 140.4 384 136 384C131.6 384 128 380.4 128 376V328C128 323.6 131.6 320 136 320C140.4 320 144 323.6 144 328V376zM445.7 429.7C442.5 432.8 437.5 432.8 434.3 429.7C431.2 426.5 431.2 421.5 434.3 418.3L450.3 402.3C453.5 399.2 458.5 399.2 461.7 402.3C464.8 405.5 464.8 410.5 461.7 413.7L445.7 429.7zM384.8 330.3C391.9 323.1 402.8 321.2 412 325.6L473.8 354.8C514.6 374.1 524 428.1 492.1 460.1C460.1 492 406.1 482.6 386.8 441.8L357.6 380C353.2 370.8 355.1 359.9 362.3 352.8L384.8 330.3zM405.2 340C402.1 338.6 398.5 339.2 396.1 341.6L373.6 364.1C371.2 366.5 370.6 370.1 372 373.2L401.2 434.9C415.8 465.8 456.6 472.9 480.7 448.7C504.9 424.6 497.8 383.8 466.9 369.2L405.2 340z"/></svg>
